img/Footer/Фейсбук.svg

<svg width="36" height="36" viewBox="0 0 36 36" fill="none" xmlns="http://www.w3.org/2000/svg">
<path d="M18 35C27.3888 35 35 27.3888 35 18C35 8.61116 27.3888 1 18 1C8.61116 1 1 8.61116 1 18C1 27.3888 8.61116 35 18 35Z" stroke="white" stroke-opacity="0.5" stroke-width="2"/>
<path d="M18 2C14.8355 2 11.7421 2.93838 9.11088 4.69649C6.4797 6.45459 4.42894 8.95345 3.21793 11.8771C2.00693 14.8007 1.69008 18.0177 2.30744 21.1214C2.92481 24.2251 4.44866 27.0761 6.6863 29.3137C8.92394 31.5513 11.7749 33.0752 14.8786 33.6926C17.9823 34.3099 21.1993 33.9931 24.1229 32.7821C27.0466 31.5711 29.5454 29.5203 31.3035 26.8891C33.0616 24.2579 34 21.1645 34 18C34 13.7565 32.3143 9.68687 29.3137 6.68629C26.3131 3.68571 22.2435 2 18 2ZM22.06 11.45H19V14.9H22V18.34H19V27H16V18.34H13V14.9H16V11.45C15.9449 10.5957 16.2291 9.75426 16.7908 9.1083C17.3525 8.46234 18.1464 8.06407 19 8H22V11.45H22.06Z" fill="white" fill-opacity="0.8"/>
</svg>

<svg width="36" height="36" fill="none" xmlns="http://www.w3.org/2000/svg"><path d="M18 35c9.389 0 17-7.611 17-17S27.389 1 18 1 1 8.611 1 18s7.611 17 17 17z" stroke="#fff" stroke-opacity=".5" stroke-width="2"/><path d="M18 2a16 16 0 100 32 16 16 0 000-32zm4.06 9.45H19v3.45h3v3.44h-3V27h-3v-8.66h-3V14.9h3v-3.45A3.25 3.25 0 0119 8h3v3.45h.06z" fill="#fff" fill-opacity=".8"/></svg>
